X: 5
T: The Cook In The Kitchen
R: jig
M: 6/8
L: 1/8
K: Gmaj
|: E | DGG GAG | FDE =F3 | DGG GFG | A2 d cAG |
DGG GAG | FDE =F2 d | cAG FGA | BGG G2 :||
|: A | B3 BAG | A3 AGF | G3 GFG | A2 d cAG |
B3 BAG | A3 A2 d | cAG FGA | BGG G2 :||
|: B | d2 e f2 g | a2 g fed | cAG FGA | B/c/dB cAG |
d2 e f2 g | a2 g fed | cAG FGA | BGG G2 :||


Tune 808	Setting 13957

